svg/emoji_u1f960.svg

<?xml version="1.0" encoding="UTF-8" standalone="no"?>
<svg
   xmlns:dc="http://purl.org/dc/elements/1.1/"
   xmlns:cc="http://creativecommons.org/ns#"
   xmlns:rdf="http://www.w3.org/1999/02/22-rdf-syntax-ns#"
   xmlns:svg="http://www.w3.org/2000/svg"
   xmlns="http://www.w3.org/2000/svg"
   xmlns:sodipodi="http://sodipodi.sourceforge.net/DTD/sodipodi-0.dtd"
   xmlns:inkscape="http://www.inkscape.org/namespaces/inkscape"
   width="128"
   height="128"
   style="enable-background:new 0 0 128 128;"
   version="1.1"
   id="svg35"
   sodipodi:docname="emoji_u1f960.svg"
   inkscape:version="0.92.2 (5c3e80d, 2017-08-06)">
  <metadata
     id="metadata41">
    <rdf:RDF>
      <cc:Work
         rdf:about="">
        <dc:format>image/svg+xml</dc:format>
        <dc:type
           rdf:resource="http://purl.org/dc/dcmitype/StillImage" />
      </cc:Work>
    </rdf:RDF>
  </metadata>
  <defs
     id="defs39">
    <linearGradient
       id="SVGID_1_"
       gradientUnits="userSpaceOnUse"
       x1="86.379997"
       x2="109.38"
       y1="55.4664"
       y2="10.4664">
      <stop
         offset="0"
         style="stop-color:#B8B8B8"
         id="stop2" />
    </linearGradient>
    <radialGradient
       id="SVGID_2_"
       cx="33.1712"
       cy="58.405899"
       gradientUnits="userSpaceOnUse"
       r="59.982899">
      <stop
         offset="0"
         style="stop-color:#FFD880"
         id="stop13" />
    </radialGradient>
    <radialGradient
       id="SVGID_3_"
       cx="33.298698"
       cy="58.3634"
       gradientUnits="userSpaceOnUse"
       r="59.8167">
      <stop
         offset="0"
         style="stop-color:#FFD880"
         id="stop18" />
    </radialGradient>
    <linearGradient
       id="SVGID_4_"
       gradientTransform="matrix(0.9972,-0.075,0.075,0.9972,-38.229426,11.469537)"
       gradientUnits="userSpaceOnUse"
       x1="71.360703"
       x2="77.066704"
       y1="42.005001"
       y2="66.987999">
      <stop
         offset="0.386"
         style="stop-color:#FFD880;stop-opacity:0"
         id="stop23" />
    </linearGradient>
  </defs>
  <sodipodi:namedview
     pagecolor="#ffffff"
     bordercolor="#666666"
     inkscape:document-rotation="0"
     borderopacity="1"
     objecttolerance="10"
     gridtolerance="10"
     guidetolerance="10"
     inkscape:pageopacity="0"
     inkscape:pageshadow="2"
     inkscape:window-width="1440"
     inkscape:window-height="837"
     id="namedview37"
     showgrid="false"
     inkscape:object-paths="true"
     inkscape:zoom="2.7226563"
     inkscape:cx="-19.988236"
     inkscape:cy="81.443151"
     inkscape:window-x="0"
     inkscape:window-y="27"
     inkscape:window-maximized="1"
     inkscape:current-layer="svg35"
     inkscape:snap-intersection-paths="true" />
  <path
     d="m 122.12,15.28 c -1.06,1.55 -3.43,3.99 -4.66,5.71 -1.23,1.71 -2.36,3.37 -3.41,4.97 -1.05,1.6 -2.03,3.16 -2.94,4.68 -0.91,1.52 -1.77,3 -2.57,4.45 -0.8,1.45 -1.56,2.88 -2.28,4.3 -0.72,1.42 -1.4,2.82 -2.04,4.22 -0.65,1.4 -1.26,2.8 -1.85,4.21 -0.59,1.41 -1.16,2.84 -1.7,4.28 -0.54,1.44 -1.06,2.92 -1.56,4.42 -0.5,1.51 -0.97,3.05 -1.42,4.64 -0.45,1.59 -0.87,3.22 -1.27,4.92 -0.4,1.69 -0.76,3.44 -1.09,5.26 -2.47,-0.61 -4.65,-1.12 -6.69,-1.57 -2.04,-0.45 -3.93,-0.85 -5.84,-1.24 -1.91,-0.38 -3.82,-0.75 -5.92,-1.13 -2.09,-0.38 -4.36,-0.76 -6.97,-1.17 0.34,-1.84 0.71,-3.61 1.11,-5.33 0.4,-1.72 0.82,-3.38 1.26,-5 0.44,-1.62 0.91,-3.19 1.39,-4.73 0.48,-1.54 0.99,-3.04 1.51,-4.51 0.52,-1.47 1.07,-2.92 1.63,-4.36 0.56,-1.44 1.15,-2.85 1.76,-4.27 0.61,-1.41 1.25,-2.82 1.91,-4.24 0.66,-1.42 1.36,-2.84 2.1,-4.27 0.73,-1.44 1.5,-2.89 2.32,-4.37 0.82,-1.48 1.68,-2.99 2.6,-4.53 0.92,-1.54 1.9,-3.13 2.95,-4.76 1.05,-1.63 2.17,-3.31 3.38,-5.04 1.21,-1.73 2.5,-3.52 3.9,-5.38 2.47,0.94 4.6,1.78 6.57,2.58 1.96,0.8 3.76,1.55 5.54,2.32 1.78,0.77 3.54,1.55 5.43,2.41 1.89,0.86 4.12,1.34 6.85,2.53 z"
     style="fill:#e1e1e1;fill-opacity:1"
     id="path5"
     inkscape:connector-curvature="0" />
  <text
     xml:space="preserve"
     style="font-size:40px;line-height:25px;font-family:'Comic Neue';-inkscape-font-specification:'Comic Neue';letter-spacing:0px;word-spacing:0px;fill:none;stroke:#000000;stroke-width:1px;stroke-linecap:butt;stroke-linejoin:miter;stroke-opacity:1"
     x="-33.844444"
     y="102.10011"
     id="text4379"
     transform="rotate(-61.306982)"><tspan
       sodipodi:role="line"
       x="-33.844444"
       y="102.10011"
       style="font-style:normal;font-variant:normal;font-weight:normal;font-stretch:normal;font-size:6.66666667px;line-height:24px;font-family:'Comic Neue';-inkscape-font-specification:'Comic Neue';fill:#51004e;fill-opacity:1;stroke:none"
       id="tspan4381">The Blob is here to stay!</tspan></text>
  <path
     style="fill:#e39300;fill-opacity:1"
     d="M 39.621094 30.628906 C 36.660938 30.603594 33.590781 30.705859 30.800781 31.380859 C 27.880781 32.090859 26.050781 33.110078 25.050781 34.330078 C 20.440781 39.950078 33.229375 49.870859 37.859375 53.630859 C 42.809375 57.650859 48.570859 61.850391 54.130859 65.650391 C 55.810859 66.800391 57.479844 67.920469 59.089844 68.980469 L 59.068359 68.986328 C 59.052168 68.986814 59.035707 68.989849 59.019531 68.990234 L 46.220703 72.289062 C 30.020703 76.859062 7.8197656 77.549922 3.7597656 85.669922 C -2.5102344 98.209922 17.099141 110.04 25.619141 114.25 C 45.379141 124.02 67.910078 125.97984 88.080078 116.08984 C 93.320078 113.51984 97.930234 110.37047 101.99023 106.23047 C 114.32023 91.850469 117.20008 80.110859 114.08008 65.880859 C 105.25008 37.670859 69.009297 31.239687 42.529297 30.679688 C 41.581797 30.659688 40.607813 30.637344 39.621094 30.628906 z M 88.390625 60.240234 C 89.080625 60.340234 89.830781 60.47 90.300781 61 C 89.830781 60.48 89.080625 60.340234 88.390625 60.240234 z "
     id="path16" />
  <path
     style="opacity:1;vector-effect:none;fill:#000000;fill-opacity:0.37172851;fill-rule:evenodd;stroke:none;stroke-width:3.77952766;stroke-linecap:round;stroke-linejoin:round;stroke-miterlimit:4;stroke-dasharray:none;stroke-dashoffset:0;stroke-opacity:1"
     d="M 38.251953 50.597656 C 36.952212 50.603859 35.67617 50.672607 34.435547 50.810547 C 35.744022 51.911634 36.971052 52.909457 37.859375 53.630859 C 42.809375 57.650859 48.570859 61.850391 54.130859 65.650391 C 55.810859 66.800391 57.479844 67.920469 59.089844 68.980469 C 59.089844 68.980469 69.513826 64.253541 83.138672 64.457031 C 83.138672 64.457031 57.849115 50.504131 38.251953 50.597656 z "
     id="path4364" />
  <path
     style="opacity:1;vector-effect:none;fill:#000000;fill-opacity:0.40618676;fill-rule:evenodd;stroke:none;stroke-width:3.77952766;stroke-linecap:round;stroke-linejoin:round;stroke-miterlimit:4;stroke-dasharray:none;stroke-dashoffset:0;stroke-opacity:1"
     d="M 87.851562 35.564453 C 82.826258 35.497087 79.524791 36.010053 79.476562 36.017578 C 79.475127 36.020765 79.473805 36.024024 79.472656 36.027344 C 88.032859 38.676399 95.987089 42.531267 102.28516 48.033203 C 102.31438 47.963025 102.33981 47.890396 102.36914 47.820312 C 102.95914 46.410312 103.5707 45.009375 104.2207 43.609375 C 104.8607 42.209375 105.53977 40.810625 106.25977 39.390625 C 106.38267 39.148226 106.5232 38.899281 106.64844 38.65625 C 106.64436 38.654859 106.6408 38.653734 106.63672 38.652344 C 99.707852 36.28993 92.91386 35.632315 87.851562 35.564453 z "
     id="path4369" />
</svg>

<svg xmlns="http://www.w3.org/2000/svg" width="128" height="128"><path d="M122.12 15.28c-1.06 1.55-3.43 3.99-4.66 5.71-1.23 1.71-2.36 3.37-3.41 4.97-1.05 1.6-2.03 3.16-2.94 4.68-.91 1.52-1.77 3-2.57 4.45-.8 1.45-1.56 2.88-2.28 4.3-.72 1.42-1.4 2.82-2.04 4.22-.65 1.4-1.26 2.8-1.85 4.21-.59 1.41-1.16 2.84-1.7 4.28-.54 1.44-1.06 2.92-1.56 4.42-.5 1.51-.97 3.05-1.42 4.64-.45 1.59-.87 3.22-1.27 4.92-.4 1.69-.76 3.44-1.09 5.26-2.47-.61-4.65-1.12-6.69-1.57-2.04-.45-3.93-.85-5.84-1.24a293.82 293.82 0 0 0-12.89-2.3c.34-1.84.71-3.61 1.11-5.33.4-1.72.82-3.38 1.26-5 .44-1.62.91-3.19 1.39-4.73.48-1.54.99-3.04 1.51-4.51.52-1.47 1.07-2.92 1.63-4.36.56-1.44 1.15-2.85 1.76-4.27.61-1.41 1.25-2.82 1.91-4.24.66-1.42 1.36-2.84 2.1-4.27.73-1.44 1.5-2.89 2.32-4.37a159.9 159.9 0 0 1 5.55-9.29c1.05-1.63 2.17-3.31 3.38-5.04s2.5-3.52 3.9-5.38c2.47.94 4.6 1.78 6.57 2.58a287.146 287.146 0 0 1 10.97 4.73c1.89.86 4.12 1.34 6.85 2.53z" fill="#e1e1e1"/><text style="line-height:25px;-inkscape-font-specification:'Comic Neue'" x="-33.844" y="102.1" transform="rotate(-61.307)" font-size="40" font-family="Comic Neue" letter-spacing="0" word-spacing="0" fill="none" stroke="#000"><tspan x="-33.844" y="102.1" style="line-height:24px;-inkscape-font-specification:'Comic Neue'" font-weight="400" font-size="6.667" fill="#51004e" stroke="none">The Blob is here to stay!</tspan></text><path d="M39.621 30.629c-2.96-.025-6.03.077-8.82.752-2.92.71-4.75 1.73-5.75 2.95-4.61 5.62 8.178 15.54 12.808 19.3 4.95 4.02 10.712 8.22 16.272 12.02 1.68 1.15 3.349 2.27 4.959 3.33l-.022.005c-.016 0-.032.004-.048.004l-12.8 3.3c-16.2 4.57-38.4 5.26-42.46 13.38-6.27 12.54 13.34 24.37 21.86 28.58 19.76 9.77 42.29 11.73 62.46 1.84 5.24-2.57 9.85-5.72 13.91-9.86 12.33-14.38 15.21-26.12 12.09-40.35-8.83-28.21-45.07-34.64-71.55-35.2-.948-.02-1.922-.043-2.909-.051zm48.77 29.611c.69.1 1.44.23 1.91.76-.47-.52-1.22-.66-1.91-.76z" fill="#e39300"/><path d="M38.252 50.598c-1.3.006-2.576.075-3.816.213a250.65 250.65 0 0 0 3.423 2.82c4.95 4.02 10.712 8.22 16.272 12.02 1.68 1.15 3.349 2.27 4.959 3.33 0 0 10.424-4.727 24.049-4.524 0 0-25.29-13.953-44.887-13.86z" fill-opacity=".372" fill-rule="evenodd" stroke-width="3.78" stroke-linecap="round" stroke-linejoin="round"/><path d="M87.852 35.564c-5.026-.067-8.327.446-8.375.454a.117.117 0 0 0-.004.01c8.56 2.648 16.514 6.503 22.812 12.005.03-.07.055-.143.084-.213.59-1.41 1.202-2.81 1.852-4.21.64-1.4 1.319-2.8 2.039-4.22.123-.242.263-.49.388-.734l-.011-.004c-6.93-2.362-13.723-3.02-18.785-3.088z" fill-opacity=".406" fill-rule="evenodd" stroke-width="3.78" stroke-linecap="round" stroke-linejoin="round"/></svg>
